!!!OTL: MARIE SASS TRAURIG IM GARTEN
!!!ARE: Europa, Mitteleuropa, Deutschland, Wetzlar, Schwalbach
!!!SCT: B0486
!!!YEM: Copyright 1995, estate of Helmut Schaffrath.
**kern
*ICvox
*Ivox
*M6/8
*k[b-e-]
*B-:
{8f
=1
8.d
16d
8d
8g
8g
8g
=2
8f
4f
4r}
{8f
=3
8.d
16d
8d
8f
8f
8f
=4
4.e-
4r}
{8f
=5
8.f
16f
8f
4f
8f
=6
8g
4g
4r}
{8g
=7
8.e-
16e-
8e-
4g
8g
=8
4.f
4r}
{8f
=9
4d
8f
4dd
8cc
=10
8cc
4b-
4r}
{8b-
=11
4b-
8b-
4a
8b-
=12
4.cc
4r}
{8b-
=13
4a
8g
4f
8e-
=14
8a
4a
4r}
{8g
=15
4f
8g
4e-
8f
=16
4.d
4r}
==
!!!AGN: Liebes - Lied, Leid, Klage
!!!ONB: ESAC (Essen Associative Code) Database: BOEHME
!!!AMT: compound duple
!!!AIN: vox
!!!EED: Helmut Schaffrath
!!!EEV: 1.0
*-
